X:151
T:Reel 151
M:4/4
K:Dmaj
L:1/8
dB|AD (3FED AD (3FED |GECE DEFG|ADEF ED (3ABc GF|EDCE D2FG|AD (3FED ADFD|ECA,C ECGC|AGED EFGABc|Addc d2|dc|ecAd cAG2|Acde dcAd|edcA GEcd|ecdB cABG|Addc d2cd|ecdB cBAd|efed cd (3cBA |GECE D2|
